X: 10862
M: C|
L: 1/8
K: Bb
|:\
u((3FGA) |\
|: u(c>B) |\
d>ed>c  =B>dg2  | (c>d)c>B A>cf2 | ((3gab) a>g f>ed>c | B2b2B2 :|


